Suru++-Ubuntu/actions/symbolic/tools-symbolic.svg

<svg width="16.015" height="16.079" version="1.1" xmlns="http://www.w3.org/2000/svg">
 <path d="m12.991458 15.491473c-0.181256-0.04875-0.452503-0.16799-0.602774-0.265059-0.150282-0.09708-1.967399-1.872795-4.0380624-3.946037l-3.7648188-3.7695256h-0.5222246c-0.954993 0-1.842186-0.392934-2.5177105-1.1150709-0.4547527-0.4861215-0.76093998-1.0997519-0.85748365-1.7184358-0.07546869-0.4834027-0.04284371-1.253249 0.0649687-1.5369643l0.0659062-0.1733718 1.0368836 1.0297961c0.5702901 0.5663901 1.0961335 1.0598241 1.1685459 1.0965178 0.1821749 0.0923437 0.5354527 0.0834374 0.7302838-0.0182812 0.0895312-0.0467812 0.4112997-0.3390654 0.7150682-0.6495651 0.424659-0.4340715 0.5618339-0.615337 0.5935307-0.7842931 0.0855-0.4556434 0.0211875-0.5532277-1.1330053-1.7191768-0.7098369-0.7170837-1.0575929-1.1085553-1.0020461-1.1280084 0.2392498-0.0838124 0.9348368-0.2149967 1.1397085-0.2149967 0.4094622 0 1.1019741 0.1752749 1.5412112 0.39008408 0.8020681 0.39224025 1.4227489 1.0999022 1.7598267 2.0064358 0.1272843 0.3422904 0.152203 0.5179965 0.1580999 1.1144429l0.00656 0.7080838 3.806988 3.8126965c2.453426 2.4571017 3.849175 3.8984127 3.925646 4.0538027 0.386606 0.785522 0.237272 1.67759-0.385002 2.299864-0.302503 0.302503-0.603994 0.464175-1.036574 0.555862-0.393113 0.08334-0.443091 0.08166-0.853997-0.02878zm0.911306-0.809193c0.264843-0.07359 0.610087-0.436518 0.713624-0.750234 0.226059-0.684965-0.323531-1.418202-1.062993-1.418202-0.962174 0-1.491289 1.089196-0.881287 1.814146 0.297291 0.353306 0.75735 0.485756 1.230656 0.35429zm-13.05343 0.549797c-0.19935921-0.202406-0.27551227-0.321197-0.24150918-0.376734 0.02728123-0.044625 0.43421216-0.666694 0.90420866-1.382399l0.8545493-1.301296 0.4742059-0.07856 0.4742152-0.07856 1.1610553-1.150499 1.1610459-1.1504989 0.3754122 0.3754029 0.3754029 0.375412-1.1145179 1.114668-1.1145178 1.114658-0.1224281 0.525281-0.1224186 0.525271-1.3242271 0.887672c-0.7283244 0.488212-1.3523707 0.88948-1.3867676 0.891693-0.034406 0.0019-0.1935655-0.128991-0.35370908-0.291581zm10.120857-8.2034471-0.237909-0.2436373 2.032751-2.0334167c2.015605-2.0162608 2.160683-2.190242 1.957405-2.3475356-0.255412-0.1976248-0.237394-0.2121936-2.363445 1.9105672l-2.055533 2.0523542-0.267543-0.272606-0.2675533-0.272606 2.0324983-2.0357324c1.117865-1.1196553 2.032489-2.0822795 2.032489-2.139167 0-0.1339218-0.211275-0.344531-0.345609-0.344531-0.05747 0-1.020683 0.9161899-2.14047 2.0359765l-2.0359762 2.0359765-0.2407217-0.2452686-0.2407123-0.2452779 2.0345982-2.0235171c1.877089-1.866861 2.061598-2.0334921 2.383451-2.152367 0.439809-0.1624498 0.731549-0.162703 1.16369-9.375e-4 0.454152 0.1699218 0.755305 0.45422783 0.95683 0.90327113 0.137288 0.3059248 0.161728 0.4330684 0.14205 0.7391057-0.01378 0.2137967-0.0795 0.483984-0.155944 0.6408745-0.09225 0.1893373-0.738271 0.8768336-2.139317 2.2767263l-2.00712 2.0054698z" style="fill:#808080"/>
</svg>

<?xml version="1.0" encoding="UTF-8" standalone="no"?>
<svg
   xmlns:dc="http://purl.org/dc/elements/1.1/"
   xmlns:cc="http://creativecommons.org/ns#"
   xmlns:rdf="http://www.w3.org/1999/02/22-rdf-syntax-ns#"
   xmlns:svg="http://www.w3.org/2000/svg"
   xmlns="http://www.w3.org/2000/svg"
   xmlns:sodipodi="http://sodipodi.sourceforge.net/DTD/sodipodi-0.dtd"
   xmlns:inkscape="http://www.inkscape.org/namespaces/inkscape"
   height="16.079"
   width="16.015"
   version="1.1"
   id="svg10"
   sodipodi:docname="configure.svg"
   inkscape:version="0.92.3 (2405546, 2018-03-11)">
  <metadata
     id="metadata16">
    <rdf:RDF>
      <cc:Work
         rdf:about="">
        <dc:format>image/svg+xml</dc:format>
        <dc:type
           rdf:resource="http://purl.org/dc/dcmitype/StillImage" />
        <dc:title />
      </cc:Work>
    </rdf:RDF>
  </metadata>
  <defs
     id="defs14" />
  <sodipodi:namedview
     pagecolor="#ffffff"
     bordercolor="#666666"
     borderopacity="1"
     objecttolerance="10"
     gridtolerance="10"
     guidetolerance="10"
     inkscape:pageopacity="0"
     inkscape:pageshadow="2"
     inkscape:window-width="1646"
     inkscape:window-height="757"
     id="namedview12"
     showgrid="false"
     inkscape:zoom="14.677529"
     inkscape:cx="-4.1539478"
     inkscape:cy="8.0395001"
     inkscape:window-x="0"
     inkscape:window-y="34"
     inkscape:window-maximized="0"
     inkscape:current-layer="svg10" />
  <path
     style="fill:#808080;fill-opacity:1;stroke-width:0.06027703"
     d="m 12.991458,15.491473 c -0.181256,-0.04875 -0.452503,-0.16799 -0.602774,-0.265059 -0.150282,-0.09708 -1.967399,-1.872795 -4.0380624,-3.946037 L 4.5858028,7.5108514 H 4.0635782 c -0.954993,0 -1.842186,-0.392934 -2.5177105,-1.1150709 C 1.091115,5.909659 0.78492772,5.2960286 0.68838405,4.6773447 0.61291536,4.193942 0.64554034,3.4240957 0.75335275,3.1403804 L 0.81925895,2.9670086 1.8561425,3.9968047 C 2.4264326,4.5631948 2.952276,5.0566288 3.0246884,5.0933225 3.2068633,5.1856662 3.5601411,5.1767599 3.7549722,5.0750413 3.8445034,5.0282601 4.1662719,4.7359759 4.4700404,4.4254762 4.8946994,3.9914047 5.0318743,3.8101392 5.0635711,3.6411831 5.1490711,3.1855397 5.0847586,3.0879554 3.9305658,1.9220063 3.2207289,1.2049226 2.8729729,0.81345097 2.9285197,0.79399787 c 0.2392498,-0.0838124 0.9348368,-0.2149967 1.1397085,-0.2149967 0.4094622,0 1.1019741,0.1752749 1.5412112,0.39008408 C 6.4115075,1.3613255 7.0321883,2.0689875 7.3692661,2.9755211 7.4965504,3.3178115 7.5214691,3.4935176 7.527366,4.089964 l 0.00656,0.7080838 3.806988,3.8126965 c 2.453426,2.4571017 3.849175,3.8984127 3.925646,4.0538027 0.386606,0.785522 0.237272,1.67759 -0.385002,2.299864 -0.302503,0.302503 -0.603994,0.464175 -1.036574,0.555862 -0.393113,0.08334 -0.443091,0.08166 -0.853997,-0.02878 z m 0.911306,-0.809193 c 0.264843,-0.07359 0.610087,-0.436518 0.713624,-0.750234 0.226059,-0.684965 -0.323531,-1.418202 -1.062993,-1.418202 -0.962174,0 -1.491289,1.089196 -0.881287,1.814146 0.297291,0.353306 0.75735,0.485756 1.230656,0.35429 z M 0.84933392,15.232077 C 0.64997471,15.029671 0.57382165,14.91088 0.60782474,14.855343 0.63510597,14.810718 1.0420369,14.188649 1.5120334,13.472944 l 0.8545493,-1.301296 0.4742059,-0.07856 0.4742152,-0.07856 1.1610553,-1.150499 1.1610459,-1.1504989 0.3754122,0.3754029 0.3754029,0.375412 -1.1145179,1.114668 -1.1145178,1.114658 -0.1224281,0.525281 -0.1224186,0.525271 -1.3242271,0.887672 C 1.8614862,15.120107 1.2374399,15.521375 1.203043,15.523588 1.168637,15.525488 1.0094775,15.394597 0.84933392,15.232007 Z M 10.970191,7.0286299 10.732282,6.7849926 12.765033,4.7515759 C 14.780638,2.7353151 14.925716,2.5613339 14.722438,2.4040403 14.467026,2.2064155 14.485044,2.1918467 12.358993,4.3146075 L 10.30346,6.3669617 10.035917,6.0943557 9.7683637,5.8217497 11.800862,3.7860173 c 1.117865,-1.1196553 2.032489,-2.0822795 2.032489,-2.139167 0,-0.1339218 -0.211275,-0.344531 -0.345609,-0.344531 -0.05747,0 -1.020683,0.9161899 -2.14047,2.0359765 L 9.3112958,5.3742723 9.0705741,5.1290037 8.8298618,4.8837258 10.86446,2.8602087 c 1.877089,-1.86686095 2.061598,-2.03349213 2.383451,-2.15236703 0.439809,-0.1624498 0.731549,-0.162703 1.16369,-9.375e-4 0.454152,0.1699218 0.755305,0.45422783 0.95683,0.90327113 0.137288,0.3059248 0.161728,0.4330684 0.14205,0.7391057 -0.01378,0.2137967 -0.0795,0.483984 -0.155944,0.6408745 -0.09225,0.1893373 -0.738271,0.8768336 -2.139317,2.2767263 L 11.2081,7.2723516 Z"
     id="path817"
     inkscape:connector-curvature="0" />
</svg>
